X:1
T:Title
%%score { ( 1 3 4 ) | 2 }
L:1/8
M:4/4
K:D
V:1 treble nm="Grand Piano"
V:3 treble 
V:4 treble 
V:2 bass 
V:1
 z4 z2[Q:1/4=100] D>F | [FA]>[FA] [FA]>[FA] F<F D>F |[M:3/4] [FA]>[FA] [FA]>[FA] F2 |[M:1/4] F>F | %4
[M:4/4] G>F G>A B<d d>B |[M:3/4] [FA]>[GB] [FA]>[DF] [CE]2 |[M:1/4] D>F | %7
[M:4/4] [FA]>[FA] [FA]>[FA] F<F F>F |[M:3/4] G>F G>A B2 |[M:1/4] B>[Gc] | %10
[M:4/4] [Fd]>[Fd] [Fd]>[Fd] [Fd]<[FA] A>G |[M:3/4] F>[DF] [DF]>[CE] [A,D]2 |[M:1/4] [FA]>[FA] | %13
[M:4/4] d6 z2 | A6 z2 | B6 z2 | E6 z2 |[M:3/4] [Dd]>[Fd] [Fd]>[Fd] [FA]2 |[M:1/4] [FA]>[FA] | %19
[M:4/4] B>B d>B [FA]4 | [GB]2 [FA]4 B>G | %21
[M:3/4] F>D [DF]>[CE] [A,D]2[Q:1/4=98][Q:1/4=96][Q:1/4=94][Q:1/4=92][Q:1/4=90][Q:1/4=88][Q:1/4=85][Q:1/4=83][Q:1/4=81][Q:1/4=79][Q:1/4=77] |] %22
V:2
 z4 z2 [D,F,]>[D,A,D] | [D,D]>[D,D] [D,D]>[D,D] [D,A,D]<[D,A,D] [D,F,]>[D,A,D] | %2
[M:3/4] [D,D]>[D,D] [D,D]>[D,D] [D,A,D]2 |[M:1/4] [D,A,D]>[D,A,D] | %4
[M:4/4][K:treble] [G,B,E]>[G,B,D] [G,B,E]>[G,DF] [G,DG]<[G,B,G] [G,B,G]>[G,DG] | %5
[M:3/4][K:bass] [D,D]>[D,D] [D,D]>[D,A,] [A,,A,]2 |[M:1/4] [D,F,]>[D,A,D] | %7
[M:4/4] [D,D]>[D,D] [D,D]>[D,D] [D,A,D]<[D,A,D] [D,A,D]>[D,A,D] | %8
[M:3/4][K:treble] [G,B,E]>[G,B,D] [G,B,E]>[G,DF] [G,DG]2 |[M:1/4] [G,DG]>[K:bass][E,A,] | %10
[M:4/4] [D,A,]>[D,A,] [D,A,]>[D,A,] [D,A,]<[D,A,] [F,A,D]>[G,B,D] | %11
[M:3/4] [A,D]>[A,,A,] [A,,A,]>[A,,G,] [D,F,]2 |[M:1/4] [D,D]>[D,D] | %13
[M:4/4] [D,A,]>[D,A,] [D,A,]>[D,A,] [D,A,]2 [D,A,]>[D,D] | %14
 [D,D]>[D,D] [D,D]>[D,D] [D,D]2 [D,D]>[D,D] | %15
 [G,DG]>[G,D] [G,D]>[G,D] [G,D]2[K:bass] [F,D]>[D,A,D] | %16
 [A,,A,]>[A,,A,] [A,,A,]>[A,,A,] [A,,A,]2 [A,,G,]>[C,G,] | %17
[M:3/4] [D,A,]>[D,A,] [D,A,]>[D,A,] [D,D]2 |[M:1/4] [D,D]>[D,D] | %19
[M:4/4][K:treble] [G,DG]>[G,DG] [G,B,G]>[G,DG][K:bass] [D,D]4 | [D,D]2 [D,D]4 [G,D]>[G,B,D] | %21
[M:3/4] [A,D]>[A,,F,] [A,,A,]>[A,,G,] [D,F,]2 |] %22
V:3
 x8 | x8 |[M:3/4] x6 |[M:1/4] x2 |[M:4/4] x8 |[M:3/4] x6 |[M:1/4] x2 |[M:4/4] x8 |[M:3/4] x6 | %9
[M:1/4] x2 |[M:4/4] x8 |[M:3/4] x6 |[M:1/4] x2 |[M:4/4] F>F F>F z z/ e/ [Fd]>[GB] | %14
 F>F F>F F2 [FA]>[FA] | z z/ G/ G>G z z/ d/ A>F | C>C C>C C2 [CA]>[EA] |[M:3/4] x6 |[M:1/4] x2 | %19
[M:4/4] x8 | x8 |[M:3/4] x6 |] %22
V:4
 x8 | x8 |[M:3/4] x6 |[M:1/4] x2 |[M:4/4] x8 |[M:3/4] x6 |[M:1/4] x2 |[M:4/4] x8 |[M:3/4] x6 | %9
[M:1/4] x2 |[M:4/4] x8 |[M:3/4] x6 |[M:1/4] x2 |[M:4/4] z4 F2 z2 | x8 | z4 G2 z2 | x8 |[M:3/4] x6 | %18
[M:1/4] x2 |[M:4/4] x8 | x8 |[M:3/4] x6 |] %22

